X: 2
T: Drunken Gauger, The
Z: ceolachan
S: https://thesession.org/tunes/6054#setting17953
R: jig
M: 6/8
L: 1/8
K: Gmaj
GED GAB | GBA G2 G | G2 A Bcd | efg fed | e2 B d2 A |Bcd efg | fed g2 B | DBA GED | GAB GBA | G2 G G2 A |Bcd efg | fed g2 B | dBA GED | GAB GBA | G2 G G2 ||
